!!!Genre:	Skotshne
!!!Mode:	Minor
!!!Edition:	2015
!!!Listening/dance:	listening
!!!Free rhythm?:	No
!!!Secondary Modes:	9-16
!!!:	*B-:
!!!One_Mode:	no
**kern
*I"P1
*clefG2
*k[b-e-]
*g:
*M2/4
*>A
8d
=1
[8gL
32gLL]
32a
32b-
32ccJJJ
8ddL
8ccJ
=2
4.b-T
16aLL
16gJJ
=3
8.gL
16b-Jk
8ddL
8ccJ
=4
(8qcc/
4b-)
8r
8g
=5
8.gL
16dJk
(16gLL
16b-)
(16b-
16ccJJ)
=6
(32ccKLL
8qee-/
16.dd)
(32ddk
16.b-JJ)
(32b-KLL
16.cc)
(32cck
16.aJJ)
=7
(32aKLL
16.b-)
(32b-k
16.gJJ)
(32gKLL
16.a)
(32ak
16.f#XJJ)
=
4g
8r
=8:|!
*>B
8f
*>bM
*B-:
=9!|:
(8.b-L
16ddJk)
(8qgg/
8ffL)
(8qff/
8ee-J)
=10
4.ddt
16ccLL
16b-JJ
=11
4b-
(8ffL
8ee-J
=12
4dd)
8r
(16ccLL
16b-JJ)
=13
8.b-L
16fJk
(16b-LL
16cc)
(16cc
16ddJJ)
=14
(16ddLL
16ff)
(16ff
16ddJJ)
(16ddLL
16ee-)
(16ee-
16ccJJ)
=15
(16ccLL
8qee-/
16dd)
(16dd
16b-JJ)
(16b-LL
8qdd/
16cc)
(16cc
16aJJ)
=16
4b-
4dd
=:|!
*>eM
*-
